public/assets/project-icons/steering-comm.svg

<?xml version="1.0" encoding="UTF-8"?>
<svg id="Layer_1" data-name="Layer 1" xmlns="http://www.w3.org/2000/svg" version="1.1" viewBox="0 0 219 219">
  <defs>
    <style>
      .cls-1 {
        fill: #006d68;
      }

      .cls-1, .cls-2, .cls-3, .cls-4 {
        stroke-width: 0px;
      }

      .cls-2 {
        fill: #aecc53;
      }

      .cls-3 {
        fill: #003834;
      }

      .cls-4 {
        fill: #fff;
      }
    </style>
  </defs>
  <rect class="cls-1" width="219" height="219"/>
  <path class="cls-3" d="M194.5,219H24.5v-99.5c0-46.9,38.1-85,85-85h0c46.9,0,85,38.1,85,85v99.5Z"/>
  <path class="cls-4" d="M194.2,127.8v-18.1h-23.6c-1.5-10.3-5.6-19.8-11.5-27.7l16.7-16.7-12.8-12.8-16.7,16.7c-8-5.9-17.5-10-27.7-11.5v-23.6h-18.1v23.6c-10.3,1.5-19.8,5.6-27.7,11.5l-16.7-16.7-12.8,12.8,16.7,16.7c-5.9,8-10,17.5-11.5,27.7h-23.6v18.1h23.6c1.5,10.3,5.6,19.8,11.5,27.7l-16.7,16.7,12.8,12.8,16.7-16.7c8,5.9,17.5,10,27.7,11.5v23.6h18.1v-23.6c10.3-1.5,19.8-5.6,27.7-11.5l16.7,16.7,12.8-12.8-16.7-16.7c5.9-8,10-17.5,11.5-27.7h23.6ZM109.5,162.4c-24.1,0-43.7-19.6-43.7-43.7s19.6-43.7,43.7-43.7,43.7,19.6,43.7,43.7-19.6,43.7-43.7,43.7Z"/>
  <circle class="cls-2" cx="109.5" cy="118.8" r="16.4"/>
</svg>

<svg xmlns="http://www.w3.org/2000/svg" data-name="Layer 1" viewBox="0 0 219 219"><path d="M0 0h219v219H0z" style="fill:#006d68;stroke-width:0"/><path d="M194.5 219h-170v-99.5c0-46.9 38.1-85 85-85s85 38.1 85 85z" style="stroke-width:0;fill:#003834"/><path d="M194.2 127.8v-18.1h-23.6c-1.5-10.3-5.6-19.8-11.5-27.7l16.7-16.7L163 52.5l-16.7 16.7c-8-5.9-17.5-10-27.7-11.5V34.1h-18.1v23.6c-10.3 1.5-19.8 5.6-27.7 11.5L56.1 52.5 43.3 65.3 60 82c-5.9 8-10 17.5-11.5 27.7H24.9v18.1h23.6c1.5 10.3 5.6 19.8 11.5 27.7l-16.7 16.7L56.1 185l16.7-16.7c8 5.9 17.5 10 27.7 11.5v23.6h18.1v-23.6c10.3-1.5 19.8-5.6 27.7-11.5L163 185l12.8-12.8-16.7-16.7c5.9-8 10-17.5 11.5-27.7zm-84.7 34.6c-24.1 0-43.7-19.6-43.7-43.7S85.4 75 109.5 75s43.7 19.6 43.7 43.7-19.6 43.7-43.7 43.7" style="stroke-width:0;fill:#fff"/><circle cx="109.5" cy="118.8" r="16.4" style="stroke-width:0;fill:#aecc53"/></svg>
